X:242
T:Traditional Reel In G
T:Primrose Lasses
S:Gillian Boucher, Edinburgh April 2001
Z:Nigel Gatherer
B:Dunlay's First Collection #59
M:4/4
L:1/8
K:G
g \
| "G"edBA G2GE | DEGA "D"BAAg | "G"edBA G2 GE | "D"DEGA "G"BGGA |
| "G"BdAB G2GE | DEGA "D"BAAg | "G"edBA G2 GE | "D"DEGA "G"BGG |]
B \
| "G"d2gd "C"edgd | "G"Bdgd "D"BAAB | "G"d2gd "C"efge | "D"dBAc "G"BGGB |
| "G"d2gd "C"edgd | "G"Bdgd "D"BAAB | "G"dBde "C"gbge | "D"dBAc "G"BGG |]
